lib/brands/icons/html5.svg

<svg xmlns="http://www.w3.org/2000/svg" fill="none" aria-hidden="true" viewBox="0 0 48 48"><g id="html5-Icon"><g id="Group"><path id="Vector" fill="#E44D26" d="M38.1692 11.8609L35.5874 40.7827L23.9825 44L12.4096 40.7873L9.83057 11.8609H38.1692Z"/><path id="Vector_2" fill="#F16529" d="M24 41.5409L33.3773 38.9411L35.5836 14.2261H24V41.5409Z"/><g id="Union"><path fill="#EBEBEB" d="M23.9999 21.3215H18.9812L19.3054 24.9544H23.9999V28.5021H16.0609L15.104 17.7738H23.9999V21.3215Z"/><path fill="#EBEBEB" d="M16.2195 30.276H19.7808L20.0334 33.1055L23.9845 34.1723L24 34.1682V37.8593L23.9837 37.8638L16.7165 35.8464L16.2195 30.276Z"/></g><g id="Union_2"><path fill="black" d="M14.2701 4H12.4673V9.39406H14.2702V7.58781H15.9194V9.39406H17.7223V4H15.9193V5.78125H14.2701V4Z"/><path fill="black" d="M18.5059 5.78875H20.0931L20.0932 9.39406H21.8962V5.78875H23.4841V4H18.5059V5.78875Z"/><path fill="black" d="M24.2742 4H26.1541L27.3105 5.89531L28.4657 4H30.3463V9.39406H28.5509V6.72047L27.3105 8.63836H27.2795L26.0382 6.72047V9.39406H24.2742V4Z"/><path fill="black" d="M33.047 4H31.2436V9.39406H35.5824V7.61109H33.047V4Z"/></g><g id="Union_3"><path fill="white" d="M23.9878 21.3215V17.7738H32.8748L32.5572 21.3215H23.9878Z"/><path fill="white" d="M28.3564 28.5021H23.9878V24.9545H32.2344L32.1478 25.9071L31.2608 35.8464L23.9878 37.8621V34.1712L27.9446 33.1032L28.3564 28.5021Z"/></g></g></g></svg>

<svg xmlns="http://www.w3.org/2000/svg" fill="none" aria-hidden="true" viewBox="0 0 48 48"><path fill="#E44D26" d="m38.17 11.86-2.582 28.923L23.983 44 12.41 40.787 9.83 11.861h28.34Z"/><path fill="#F16529" d="m24 41.54 9.377-2.599 2.207-24.715H24v27.315Z"/><path fill="#EBEBEB" d="M24 21.322h-5.02l.324 3.632H24v3.548h-7.94l-.956-10.728H24v3.547Zm-7.78 8.954h3.56l.253 2.83 3.951 1.066.016-.004v3.691l-.016.005-7.268-2.018-.497-5.57Z"/><path fill="#000" d="M14.27 4h-1.803v5.394h1.803V7.588h1.65v1.806h1.802V4H15.92v1.781h-1.65V4Zm4.236 1.789h1.587v3.605h1.803V5.79h1.588V4h-4.978v1.789ZM24.274 4h1.88l1.157 1.895L28.466 4h1.88v5.394h-1.795V6.72l-1.24 1.918h-.031L26.038 6.72v2.674h-1.764V4Zm8.773 0h-1.803v5.394h4.339V7.611h-2.536V4Z"/><path fill="#fff" d="M23.988 21.322v-3.548h8.887l-.318 3.547h-8.57Zm4.368 7.18h-4.368v-3.547h8.246l-.086.952-.887 9.94-7.273 2.015v-3.69l3.957-1.069.411-4.6Z"/></svg>
